X:1
T:The Farmer is the Man
M:4/4
L:1/8
K:D
 FG| AB AF D2 FG| AB AF D2 DE| FE DB, A,A, CE| D6 FG| AB AF D2 FG|\
 AB AF D2 DE| FE DB, A,A, CE| D6 z F| FA AB A3 G| FA AB A4| A2 A2 B/2 A3/2 GF|\
 E6 FG| AB AF D2 FG| AB AF D2 D3/2 E/2| FE DB, A,A, CE| D6||
